X:13846
%2426
T:Caliope House
C:Dave Richardson
R:jig
N:Played in D or E. The original is in E.
D:Patrick Street 1.
Z:id:hn-jig-14
M:6/8
K:Cmaj
~g3 egg|dgg cde|~f3 efe|~d3 dcA|GAG G2E|G2A c2d|
 [1 ~e3 edc|d2d def:|  [2 ~e3 ded|c3 cGA||
cGG
